!!!COM: Music21
!!!OTL: waltz_Winter-Sky
!!!OMV: waltz_Winter-Sky
**kern
*clefG2
*k[f#c#g#d#]
*E:
*M3/4
=1
4e
4f#
4g#
=
2.b
=
4ee
4dd#
4b
=
2.g#
=
4g#
4a
4b
=
2.cc#
=
4cc#
4b
4g#
=
2.f#
=
4.e
8g#
8aL
8bJ
=
2f#
4e
=
4g#
4b
4ee
!!linebreak:original
=
2cc#
8ff#L
8gg#J
=
4aa
4.gg#
8ff#
=
4ee
4gg#
4ee
=
2ff#
4ee
=
[2.ee
=
2.ee]
=||
*M3/4
4e
4f#
4g#
=
2.b
=
4ee
4dd#
4b
=
2.g#
=
4g#
4a
4b
!!linebreak:original
=
2.cc#
=
4cc#
4b
4g#
=
2.f#
=
4.e
8g#
8aL
8bJ
=
2f#
4e
=
4g#
4b
4ee
=
2cc#
8ff#L
8gg#J
=
4aa
4.gg#
8ff#
=
4ee
4gg#
4ee
=
2ff#
4ee
=
[2.ee
!!linebreak:original
=
2.ee]
=||
2ff#
4ee
=
2.gg#
=
4bb
4ccc#
4gg#
=
2ff#
4ee
=
2.cc#
=
4b
4cc#
4ee
=
2gg#
4bb
=
4ff#
4ee
4dd#
=
2.cc#
=
4cc#
4b
4a
=
2.g#
!!linebreak:original
=
4g#
4f#
4e
=
4f#
4g#
4b
=
[2.b
=
2.b]
=||
2ff#
4ee
=
2.gg#
=
4bb
4ccc#
4gg#
=
2ff#
4ee
=
2.cc#
=
4b
4cc#
4ee
=
2gg#
4bb
=
4ff#
4ee
4dd#
!!linebreak:original
=
2.cc#
=
4cc#
4b
4a
=
2.g#
=
4g#
4f#
4e
=
2f#
4e
=
[2.e
=
2.e]
=||
*-
